;START_OF_HEADER
;HEADER_VERSION:0.1
;FLAVOR:Griffin
;GENERATOR.NAME:Cura_SteamEngine
;GENERATOR.VERSION:5.10.2
;GENERATOR.BUILD_DATE:2025-07-28
;TARGET_MACHINE.NAME:Ultimaker S5
;EXTRUDER_TRAIN.0.INITIAL_TEMPERATURE:200
;EXTRUDER_TRAIN.0.MATERIAL.VOLUME_USED:5401
;EXTRUDER_TRAIN.0.MATERIAL.GUID:44a029e6-e31b-4c9e-a12f-9282e29a92ff
;EXTRUDER_TRAIN.0.NOZZLE.DIAMETER:0.4
;EXTRUDER_TRAIN.0.NOZZLE.NAME:AA 0.4
;BUILD_PLATE.INITIAL_TEMPERATURE:60
;BUILD_VOLUME.TEMPERATURE:28
;PRINT.TIME:2584
;PRINT.GROUPS:1
;PRINT.SIZE.MIN.X:149.909
;PRINT.SIZE.MIN.Y:104.909
;PRINT.SIZE.MIN.Z:0.2
;PRINT.SIZE.MAX.X:330
;PRINT.SIZE.MAX.Y:237
;PRINT.SIZE.MAX.Z:57.1
;SLICE_UUID:ae10890a-c246-47b8-b977-c23a38198277
;END_OF_HEADER
;Generated with Cura_SteamEngine 5.10.2
T0

M82 ;absolute extrusion mode
G92 E0
M190 S60
M104 S200
M109 S200
G280 S1
G0 Z20.001
G1 F2700 E-6.5
;LAYER_COUNT:367
G0 F9000 X330 Y237
;LAYER:0
M106 S255
M204 S1500
M205 X30 Y30
G1 F600 Z2.2
G0 F9000 X177.634 Y128.245 Z2.2
;TYPE:SKIRT
G1 F600 Z0.2
G1 F2700 E0
G1 F1800 X176.561 Y129.69 E0.02257
G1 X175.519 Y130.826 E0.0419
G1 X174.815 Y131.468 E0.05385
G1 X173.216 Y132.661 E0.07887
G1 X172.397 Y133.155 E0.09086
G1 X170.658 Y133.98 E0.115
G1 X168.987 Y134.555 E0.13716
G1 X168.166 Y134.756 E0.14776
G1 X166.035 Y135.052 E0.17474
G1 X164.66 Y135.09 E0.19199
G1 X163.886 Y135.053 E0.20171
G1 X161.912 Y134.766 E0.22672
G1 X160.615 Y134.436 E0.24351
G1 X158.918 Y133.813 E0.26617
G1 X158.197 Y133.472 E0.27618
G1 X156.392 Y132.392 E0.30255
G1 X155.42 Y131.66 E0.31781
G1 X154.272 Y130.616 E0.33727
G1 X153.518 Y129.795 E0.35125
G1 X152.315 Y128.183 E0.37648
G1 X151.862 Y127.432 E0.38747
G1 X151.094 Y125.838 E0.40966
G1 X150.444 Y123.987 E0.43426
G1 X150.243 Y123.166 E0.44486
G1 X149.947 Y121.035 E0.47184
G1 X149.909 Y119.665 E0.48903
G1 X149.946 Y118.881 E0.49887
G1 X150.224 Y116.956 E0.52326
G1 X150.574 Y115.584 E0.54102
G1 X151.186 Y113.918 E0.56328
G1 X151.527 Y113.197 E0.57328
G1 X152.601 Y111.405 E0.59948
G1 X153.336 Y110.429 E0.6148
G1 X154.48 Y109.173 E0.63611
G1 X155.184 Y108.531 E0.64805
G1 X156.816 Y107.315 E0.67358
G1 X157.567 Y106.862 E0.68457
G1 X159.161 Y106.094 E0.70676
G1 X161.012 Y105.444 E0.73137
G1 X161.833 Y105.243 E0.74196
G1 X163.964 Y104.947 E0.76894
G1 X165.34 Y104.909 E0.78621
G1 X166.113 Y104.946 E0.79591
G1 X168.087 Y105.233 E0.82093
G1 X169.384 Y105.563 E0.83771
G1 X171.081 Y106.186 E0.86038
G1 X171.802 Y106.527 E0.87038
G1 X173.594 Y107.601 E0.89658
G1 X174.57 Y108.336 E0.9119
G1 X175.826 Y109.48 E0.93321
G1 X176.468 Y110.184 E0.94516
G1 X177.684 Y111.816 E0.97068
G1 X178.137 Y112.567 E0.98168
G1 X178.988 Y114.357 E1.00653
G1 X179.46 Y115.7 E1.02438
G1 X179.805 Y117.111 E1.0426
G1 X180.052 Y118.961 E1.066
G1 X180.09 Y120.335 E1.08324
G1 X180.053 Y121.113 E1.09301
G1 X179.774 Y123.043 E1.11746
G1 X179.448 Y124.34 E1.13423
G1 X178.799 Y126.104 E1.1578
G1 X178.292 Y127.142 E1.17229
G1 X177.634 Y128.245 E1.1884
G0 F9000 X177.29 Y128.04
G1 F1800 X176.266 Y129.42 E1.20995
G1 X175.249 Y130.53 E1.22883
G1 X174.545 Y131.172 E1.24077
G1 X173.009 Y132.318 E1.26481
G1 X172.19 Y132.812 E1.2768
G1 X170.487 Y133.618 E1.30043
G1 X168.892 Y134.166 E1.32158
G1 X168.071 Y134.367 E1.33218
G1 X166.024 Y134.652 E1.3581
G1 X164.679 Y134.69 E1.37497
G1 X163.905 Y134.653 E1.38469
G1 X162.011 Y134.378 E1.40869
G1 X160.714 Y134.048 E1.42547
G1 X159.089 Y133.451 E1.44718
G1 X158.368 Y133.11 E1.45718
G1 X156.633 Y132.072 E1.48254
G1 X155.661 Y131.34 E1.49779
G1 X154.567 Y130.345 E1.51634
G1 X153.813 Y129.524 E1.53032
G1 X152.658 Y127.976 E1.55454
G1 X152.205 Y127.225 E1.56554
G1 X151.455 Y125.665 E1.58724
G1 X150.833 Y123.892 E1.61081
G1 X150.632 Y123.071 E1.62141
G1 X150.347 Y121.024 E1.64732
G1 X150.309 Y119.684 E1.66413
G1 X150.346 Y118.9 E1.67398
G1 X150.612 Y117.055 E1.69735
G1 X150.962 Y115.683 E1.71511
G1 X151.548 Y114.089 E1.73641
G1 X151.889 Y113.368 E1.74641
G1 X152.921 Y111.646 E1.77158
G1 X153.656 Y110.67 E1.78691
G1 X154.75 Y109.469 E1.80728
G1 X155.454 Y108.827 E1.81923
G1 X157.023 Y107.658 E1.84376
G1 X157.774 Y107.205 E1.85476
G1 X159.334 Y106.455 E1.87647
G1 X161.107 Y105.833 E1.90003
G1 X161.928 Y105.632 E1.91063
G1 X163.975 Y105.347 E1.93655
G1 X165.321 Y105.309 E1.95344
G1 X166.094 Y105.346 E1.96314
G1 X167.988 Y105.621 E1.98714
G1 X169.285 Y105.951 E2.00392
G1 X170.91 Y106.548 E2.02563
G1 X171.631 Y106.889 E2.03564
G1 X173.353 Y107.921 E2.06081
G1 X174.329 Y108.656 E2.07613
G1 X175.53 Y109.75 E2.09651
G1 X176.172 Y110.454 E2.10845
G1 X177.341 Y112.023 E2.13299
G1 X177.794 Y112.774 E2.14399
G1 X178.627 Y114.529 E2.16835
G1 X179.071 Y115.795 E2.18517
G1 X179.416 Y117.206 E2.20339
G1 X179.652 Y118.972 E2.22573
G1 X179.69 Y120.316 E2.24259
G1 X179.653 Y121.094 E2.25236
G1 X179.378 Y122.985 E2.27633
G1 X179.06 Y124.242 E2.29258
G1 X178.439 Y125.929 E2.31513
G1 X177.948 Y126.937 E2.32919
G1 X177.29 Y128.04 E2.3453
G0 F9000 X176.946 Y127.835
G1 F1800 X175.971 Y129.15 E2.36582
G1 X174.979 Y130.234 E2.38425
G1 X174.275 Y130.876 E2.3962
G1 X172.802 Y131.975 E2.41925
G1 X171.983 Y132.469 E2.43124
G1 X170.357 Y133.24 E2.45381
G1 X168.797 Y133.777 E2.4745
G1 X167.976 Y133.978 E2.4851
G1 X166.012 Y134.252 E2.50996
G1 X164.698 Y134.29 E2.52645
G1 X163.924 Y134.253 E2.53617
G1 X162.11 Y133.99 E2.55915
G1 X160.813 Y133.66 E2.57594
G1 X159.26 Y133.089 E2.59669
G1 X158.539 Y132.748 E2.60669
G1 X156.874 Y131.752 E2.63102
G1 X155.902 Y131.02 E2.64628
G1 X154.862 Y130.074 E2.66391
G1 X154.108 Y129.253 E2.67789
G1 X153.001 Y127.769 E2.7011
G1 X152.548 Y127.018 E2.7121
G1 X151.816 Y125.492 E2.73333
G1 X151.222 Y123.797 E2.75585
G1 X151.021 Y122.976 E2.76645
G1 X150.747 Y121.012 E2.79132
G1 X150.709 Y119.703 E2.80774
G1 X150.746 Y118.919 E2.81758
G1 X151 Y117.154 E2.83994
G1 X151.35 Y115.782 E2.8577
G1 X151.91 Y114.26 E2.87804
G1 X152.251 Y113.539 E2.88804
G1 X153.241 Y111.887 E2.91219
G1 X153.976 Y110.911 E2.92751
G1 X155.02 Y109.765 E2.94695
G1 X155.724 Y109.123 E2.9589
G1 X157.23 Y108.001 E2.98245
G1 X157.981 Y107.548 E2.99345
G1 X159.507 Y106.816 E3.01468
G1 X161.202 Y106.222 E3.0372
G1 X162.023 Y106.021 E3.0478
G1 X163.987 Y105.747 E3.07267
G1 X165.302 Y105.709 E3.08916
G1 X166.075 Y105.746 E3.09887
G1 X167.889 Y106.009 E3.12185
G1 X169.186 Y106.339 E3.13864
G1 X170.739 Y106.91 E3.15939
G1 X171.46 Y107.251 E3.16939
G1 X173.112 Y108.241 E3.19354
G1 X174.088 Y108.976 E3.20886
G1 X175.234 Y110.02 E3.2283
G1 X175.876 Y110.724 E3.24025
G1 X176.998 Y112.23 E3.2638
G1 X177.451 Y112.981 E3.2748
G1 X178.265 Y114.7 E3.29865
G1 X178.682 Y115.89 E3.31447
G1 X179.027 Y117.301 E3.33268
G1 X179.252 Y118.984 E3.35397
G1 X179.29 Y120.297 E3.37045
G1 X179.253 Y121.075 E3.38021
G1 X178.99 Y122.887 E3.40318
G1 X178.672 Y124.144 E3.41944
G1 X178.079 Y125.754 E3.44095
G1 X177.604 Y126.732 E3.45459
G1 X176.946 Y127.835 E3.47069
G0 F9000 X176.602 Y127.63
G1 F1800 X175.676 Y128.88 E3.4902
G1 X174.709 Y129.938 E3.50818
G1 X174.005 Y130.58 E3.52012
G1 X172.595 Y131.632 E3.54218
G1 X171.776 Y132.126 E3.55418
G1 X170.226 Y132.862 E3.5757
G1 X168.702 Y133.388 E3.59591
G1 X167.881 Y133.589 E3.60651
G1 X166 Y133.852 E3.63033
G1 X164.717 Y133.89 E3.64643
G1 X163.943 Y133.853 E3.65615
G1 X162.209 Y133.602 E3.67812
G1 X160.912 Y133.272 E3.6949
G1 X159.431 Y132.727 E3.71469
G1 X158.71 Y132.386 E3.72469
G1 X157.115 Y131.432 E3.748
G1 X156.143 Y130.7 E3.76326
G1 X155.157 Y129.803 E3.77997
G1 X154.403 Y128.982 E3.79395
G1 X153.344 Y127.562 E3.81617
G1 X152.891 Y126.811 E3.82716
G1 X152.193 Y125.36 E3.84736
G1 X151.611 Y123.702 E3.86939
G1 X151.41 Y122.881 E3.87999
G1 X151.147 Y121 E3.90381
G1 X151.109 Y119.722 E3.91984
G1 X151.146 Y118.938 E3.92969
G1 X151.388 Y117.253 E3.95103
G1 X151.738 Y115.881 E3.96879
G1 X152.272 Y114.431 E3.98817
G1 X152.613 Y113.71 E3.99817
G1 X153.561 Y112.128 E4.0213
G1 X154.296 Y111.152 E4.03662
G1 X155.29 Y110.061 E4.05513
G1 X155.994 Y109.419 E4.06708
G1 X157.437 Y108.344 E4.08964
G1 X158.188 Y107.891 E4.10064
G1 X159.639 Y107.193 E4.12083
G1 X161.297 Y106.611 E4.14287
G1 X162.118 Y106.41 E4.15347
G1 X163.999 Y106.147 E4.17729
G1 X165.283 Y106.109 E4.19339
G1 X166.056 Y106.146 E4.2031
G1 X167.79 Y106.397 E4.22507
G1 X169.087 Y106.727 E4.24185
G1 X170.568 Y107.272 E4.26164
G1 X171.289 Y107.613 E4.27165
G1 X172.871 Y108.561 E4.29477
G1 X173.847 Y109.296 E4.3101
G1 X174.938 Y110.29 E4.3286
G1 X175.58 Y110.994 E4.34055
G1 X176.655 Y112.437 E4.36312
G1 X177.108 Y113.188 E4.37412
G1 X177.888 Y114.833 E4.39695
G1 X178.293 Y115.985 E4.41226
G1 X178.638 Y117.396 E4.43048
G1 X178.852 Y118.996 E4.45072
G1 X178.89 Y120.278 E4.4668
G1 X178.853 Y121.056 E4.47657
G1 X178.602 Y122.789 E4.49853
G1 X178.284 Y124.046 E4.51479
G1 X177.719 Y125.58 E4.53529
G1 X177.26 Y126.527 E4.54849
G1 X176.602 Y127.63 E4.56459
G0 F9000 X176.258 Y127.425
G1 F1800 X175.38 Y128.61 E4.58309
G1 X174.439 Y129.642 E4.6006
G1 X173.735 Y130.284 E4.61255
G1 X172.388 Y131.289 E4.63362
G1 X171.569 Y131.783 E4.64562
G1 X170.055 Y132.5 E4.66663
G1 X168.607 Y132.999 E4.68583
G1 X167.786 Y133.2 E4.69643
G1 X165.988 Y133.452 E4.7192
G1 X164.736 Y133.49 E4.73491
G1 X163.962 Y133.453 E4.74463
G1 X162.308 Y133.214 E4.76558
G1 X161.011 Y132.884 E4.78237
G1 X159.602 Y132.365 E4.8012
G1 X158.881 Y132.024 E4.8112
G1 X157.356 Y131.112 E4.83348
G1 X156.384 Y130.38 E4.84874
G1 X155.452 Y129.532 E4.86454
G1 X154.698 Y128.711 E4.87852
G1 X153.687 Y127.355 E4.89973
G1 X153.234 Y126.604 E4.91073
G1 X152.554 Y125.187 E4.93044
G1 X152 Y123.607 E4.95144
G1 X151.799 Y122.786 E4.96204
G1 X151.547 Y120.988 E4.9848
G1 X151.509 Y119.741 E5.00045
G1 X151.546 Y118.957 E5.01029
G1 X151.776 Y117.351 E5.03064
G1 X152.114 Y116.019 E5.04787
G1 X152.634 Y114.602 E5.0668
G1 X152.975 Y113.881 E5.0768
G1 X153.881 Y112.368 E5.09892
G1 X154.592 Y111.421 E5.11377
G1 X155.56 Y110.357 E5.1318
G1 X156.264 Y109.715 E5.14375
G1 X157.644 Y108.687 E5.16533
G1 X158.395 Y108.234 E5.17633
G1 X159.812 Y107.554 E5.19604
G1 X161.392 Y107 E5.21704
G1 X162.213 Y106.799 E5.22764
G1 X164.011 Y106.547 E5.2504
G1 X165.264 Y106.509 E5.26612
G1 X166.037 Y106.546 E5.27583
G1 X167.691 Y106.785 E5.29679
G1 X168.988 Y107.115 E5.31357
G1 X170.397 Y107.634 E5.3324
G1 X171.118 Y107.975 E5.3424
G1 X172.631 Y108.881 E5.36452
G1 X173.578 Y109.592 E5.37937
G1 X174.642 Y110.56 E5.39741
G1 X175.284 Y111.264 E5.40935
G1 X176.312 Y112.644 E5.43093
G1 X176.765 Y113.395 E5.44193
G1 X177.511 Y114.966 E5.46374
G1 X177.904 Y116.08 E5.47856
G1 X178.249 Y117.491 E5.49677
G1 X178.452 Y119.008 E5.51596
G1 X178.49 Y120.259 E5.53166
G1 X178.453 Y121.037 E5.54143
G1 X178.214 Y122.691 E5.56238
G1 X177.896 Y123.948 E5.57864
G1 X177.359 Y125.406 E5.59813
G1 X176.916 Y126.322 E5.61089
G1 X176.258 Y127.425 E5.62699
G0 F9000 X175.914 Y127.22
G1 F1800 X175.059 Y128.371 E5.64498
G1 X174.169 Y129.346 E5.66153
G1 X173.465 Y129.988 E5.67348
G1 X172.181 Y130.946 E5.69357
G1 X171.362 Y131.44 E5.70556
G1 X169.924 Y132.122 E5.72552
G1 X168.512 Y132.61 E5.74426
G1 X167.691 Y132.811 E5.75485
G1 X165.976 Y133.052 E5.77657
G1 X164.755 Y133.09 E5.79189
G1 X163.981 Y133.053 E5.80161
G1 X162.406 Y132.826 E5.82156
G1 X161.149 Y132.508 E5.83782
G1 X159.773 Y132.003 E5.85621
G1 X159.052 Y131.662 E5.86621
G1 X157.597 Y130.792 E5.88747
G1 X156.625 Y130.06 E5.90273
G1 X155.747 Y129.261 E5.91761
G1 X154.993 Y128.44 E5.93159
G1 X154.03 Y127.148 E5.9518
G1 X153.577 Y126.397 E5.9628
G1 X152.931 Y125.054 E5.98149
G1 X152.389 Y123.512 E6.00198
G1 X152.188 Y122.691 E6.01258
G1 X151.947 Y120.976 E6.0343
G1 X151.909 Y119.76 E6.04956
G1 X151.946 Y118.976 E6.0594
G1 X152.164 Y117.449 E6.07874
G1 X152.502 Y116.117 E6.09598
G1 X152.996 Y114.773 E6.11393
G1 X153.337 Y114.052 E6.12394
G1 X154.201 Y112.608 E6.14504
G1 X154.888 Y111.69 E6.15942
G1 X155.83 Y110.653 E6.17699
G1 X156.534 Y110.011 E6.18893
G1 X157.851 Y109.03 E6.20953
G1 X158.602 Y108.577 E6.22053
G1 X159.945 Y107.931 E6.23921
G1 X161.487 Y107.389 E6.25971
G1 X162.308 Y107.188 E6.27031
G1 X164.023 Y106.947 E6.29203
G1 X165.245 Y106.909 E6.30736
G1 X166.018 Y106.946 E6.31707
G1 X167.593 Y107.173 E6.33702
G1 X168.85 Y107.491 E6.35328
G1 X170.226 Y107.996 E6.37166
G1 X170.947 Y108.337 E6.38166
G1 X172.391 Y109.201 E6.40277
G1 X173.309 Y109.888 E6.41714
G1 X174.346 Y110.83 E6.43471
G1 X174.988 Y111.534 E6.44666
G1 X175.969 Y112.851 E6.46726
G1 X176.422 Y113.602 E6.47825
G1 X177.149 Y115.137 E6.49955
G1 X177.515 Y116.175 E6.51336
G1 X177.86 Y117.586 E6.53157
G1 X178.052 Y119.02 E6.54971
G1 X178.09 Y120.24 E6.56502
G1 X178.053 Y121.018 E6.57479
G1 X177.826 Y122.593 E6.59474
G1 X177.508 Y123.85 E6.611
G1 X176.999 Y125.232 E6.62947
G1 X176.572 Y126.117 E6.6418
G1 X175.914 Y127.22 E6.6579
G0 F9000 X175.57 Y127.015
G1 F1800 X174.763 Y128.102 E6.67488
G1 X173.899 Y129.05 E6.69096
G1 X173.195 Y129.692 E6.70291
G1 X171.974 Y130.603 E6.72202
G1 X171.155 Y131.097 E6.73401
G1 X169.793 Y131.744 E6.75292
G1 X168.417 Y132.221 E6.77118
G1 X167.596 Y132.422 E6.78178
G1 X165.963 Y132.652 E6.80246
G1 X164.774 Y132.69 E6.81738
G1 X164 Y132.653 E6.8271
G1 X162.504 Y132.438 E6.84605
G1 X161.247 Y132.12 E6.86231
G1 X159.944 Y131.641 E6.87972
G1 X159.223 Y131.3 E6.88972
G1 X157.838 Y130.472 E6.90996
G1 X156.866 Y129.74 E6.92522
G1 X156.042 Y128.99 E6.93919
G1 X155.288 Y128.169 E6.95317
G1 X154.373 Y126.941 E6.97237
G1 X153.92 Y126.19 E6.98337
G1 X153.292 Y124.881 E7.00158
G1 X152.778 Y123.417 E7.02104
G1 X152.577 Y122.596 E7.03164
G1 X152.347 Y120.963 E7.05232
G1 X152.309 Y119.779 E7.06717
G1 X152.346 Y118.995 E7.07701
G1 X152.552 Y117.547 E7.09536
G1 X152.89 Y116.215 E7.11259
G1 X153.358 Y114.944 E7.12957
G1 X153.699 Y114.223 E7.13958
G1 X154.544 Y112.814 E7.16018
G1 X155.184 Y111.959 E7.17357
G1 X156.1 Y110.949 E7.19067
G1 X156.804 Y110.307 E7.20262
G1 X158.058 Y109.373 E7.22223
G1 X158.809 Y108.92 E7.23323
G1 X160.118 Y108.292 E7.25143
G1 X161.582 Y107.778 E7.27089
G1 X162.403 Y107.577 E7.28149
G1 X164.036 Y107.347 E7.30217
G1 X165.226 Y107.309 E7.3171
G1 X165.999 Y107.346 E7.32681
G1 X167.495 Y107.561 E7.34576
G1 X168.752 Y107.879 E7.36202
G1 X170.055 Y108.358 E7.37943
G1 X170.776 Y108.699 E7.38943
G1 X172.185 Y109.544 E7.41003
G1 X173.04 Y110.184 E7.42343
G1 X174.05 Y111.1 E7.44053
G1 X174.692 Y111.804 E7.45247
G1 X175.626 Y113.058 E7.47208
G1 X176.079 Y113.809 E7.48308
G1 X176.772 Y115.27 E7.50336
G1 X177.126 Y116.27 E7.51666
G1 X177.471 Y117.681 E7.53488
G1 X177.652 Y119.033 E7.55198
G1 X177.69 Y120.221 E7.56689
G1 X177.653 Y120.999 E7.57666
G1 X177.438 Y122.495 E7.59561
G1 X177.132 Y123.712 E7.61135
G1 X176.638 Y125.059 E7.62934
G1 X176.228 Y125.912 E7.64121
G1 X175.57 Y127.015 E7.65731
G0 F9000 X175.226 Y126.81
G1 F1800 X174.467 Y127.833 E7.67329
G1 X173.629 Y128.754 E7.6889
G1 X172.925 Y129.396 E7.70085
G1 X171.767 Y130.26 E7.71897
G1 X170.948 Y130.754 E7.73096
G1 X169.622 Y131.382 E7.74936
G1 X168.322 Y131.832 E7.76661
G1 X167.501 Y132.033 E7.77721
G1 X165.95 Y132.252 E7.79686
G1 X164.793 Y132.29 E7.81137
G1 X164.019 Y132.253 E7.82109
G1 X162.602 Y132.05 E7.83904
G1 X161.345 Y131.732 E7.8553
G1 X160.115 Y131.279 E7.87174
G1 X159.394 Y130.938 E7.88174
G1 X158.079 Y130.152 E7.90095
G1 X157.107 Y129.42 E7.91621
G1 X156.337 Y128.719 E7.92927
G1 X155.583 Y127.898 E7.94325
G1 X154.716 Y126.734 E7.96145
G1 X154.263 Y125.983 E7.97245
G1 X153.669 Y124.748 E7.98963
G1 X153.167 Y123.322 E8.00859
G1 X152.966 Y122.501 E8.01919
G1 X152.747 Y120.95 E8.03883
G1 X152.709 Y119.798 E8.05329
G1 X152.746 Y119.014 E8.06313
G1 X152.94 Y117.645 E8.08047
G1 X153.266 Y116.353 E8.09718
G1 X153.72 Y115.115 E8.11372
G1 X154.061 Y114.394 E8.12372
G1 X154.865 Y113.053 E8.14333
G1 X155.481 Y112.227 E8.15625
G1 X156.37 Y111.245 E8.17286
G1 X157.074 Y110.603 E8.18481
G1 X158.265 Y109.716 E8.20343
G1 X159.016 Y109.263 E8.21443
G1 X160.251 Y108.669 E8.23161
G1 X161.677 Y108.167 E8.25057
G1 X162.498 Y107.966 E8.26117
G1 X164.049 Y107.747 E8.28082
G1 X165.207 Y107.709 E8.29534
G1 X165.98 Y107.746 E8.30505
G1 X167.397 Y107.949 E8.323
G1 X168.654 Y108.267 E8.33926
G1 X169.884 Y108.72 E8.3557
G1 X170.605 Y109.061 E8.3657
G1 X171.946 Y109.865 E8.38531
G1 X172.772 Y110.481 E8.39823
G1 X173.754 Y111.37 E8.41484
G1 X174.396 Y112.074 E8.42679
