;START_OF_HEADER
;HEADER_VERSION:0.1
;FLAVOR:Griffin
;GENERATOR.NAME:Cura_SteamEngine
;GENERATOR.VERSION:5.10.2
;GENERATOR.BUILD_DATE:2025-07-28
;TARGET_MACHINE.NAME:Ultimaker S5
;EXTRUDER_TRAIN.0.INITIAL_TEMPERATURE:200
;EXTRUDER_TRAIN.0.MATERIAL.VOLUME_USED:9180
;EXTRUDER_TRAIN.0.MATERIAL.GUID:44a029e6-e31b-4c9e-a12f-9282e29a92ff
;EXTRUDER_TRAIN.0.NOZZLE.DIAMETER:0.4
;EXTRUDER_TRAIN.0.NOZZLE.NAME:AA 0.4
;BUILD_PLATE.INITIAL_TEMPERATURE:60
;BUILD_VOLUME.TEMPERATURE:28
;PRINT.TIME:3253
;PRINT.GROUPS:1
;PRINT.SIZE.MIN.X:132.911
;PRINT.SIZE.MIN.Y:87.896
;PRINT.SIZE.MIN.Z:0.2
;PRINT.SIZE.MAX.X:330
;PRINT.SIZE.MAX.Y:237
;PRINT.SIZE.MAX.Z:23.95
;SLICE_UUID:144e4c1f-f585-45c5-a067-ac56e86b2ca4
;END_OF_HEADER
;Generated with Cura_SteamEngine 5.10.2
T0

M82 ;absolute extrusion mode
G92 E0
M190 S60
M104 S200
M109 S200
G280 S1
G0 Z20.001
G1 F2700 E-6.5
;LAYER_COUNT:146
G0 F9000 X330 Y237
;LAYER:0
M106 S255
M204 S1500
M205 X30 Y30
G1 F600 Z2.2
G0 F9000 X192.223 Y137.014 Z2.2
;TYPE:SKIRT
G1 F600 Z0.2
G1 F2700 E0
G1 F1800 X191.346 Y138.341 E0.01995
G1 X190.017 Y140.108 E0.04767
G1 X188.801 Y141.535 E0.07118
G1 X187.463 Y142.924 E0.09537
G1 X186.154 Y144.131 E0.1177
G1 X184.327 Y145.618 E0.14724
G1 X182.737 Y146.753 E0.17174
G1 X181.322 Y147.64 E0.19268
G1 X179.465 Y148.648 E0.21918
G1 X177.572 Y149.533 E0.24538
G1 X176.143 Y150.103 E0.26468
G1 X173.885 Y150.838 E0.29445
G1 X172.114 Y151.298 E0.3174
G1 X170.125 Y151.683 E0.34281
G1 X168.33 Y151.922 E0.36551
G1 X166.161 Y152.07 E0.39278
G1 X164.427 Y152.089 E0.41452
G1 X162.249 Y151.98 E0.44187
G1 X160.721 Y151.811 E0.46115
G1 X158.366 Y151.396 E0.49114
G1 X156.511 Y150.947 E0.51507
G1 X154.919 Y150.467 E0.53592
G1 X152.859 Y149.711 E0.56344
G1 X151.283 Y149.016 E0.58504
G1 X149.402 Y148.045 E0.61159
G1 X147.599 Y146.968 E0.63792
G1 X146.164 Y145.99 E0.6597
G1 X144.655 Y144.824 E0.68362
G1 X143.006 Y143.37 E0.71119
G1 X141.639 Y142.006 E0.7354
G1 X140.327 Y140.527 E0.7602
G1 X139.215 Y139.112 E0.78276
G1 X137.976 Y137.32 E0.81009
G1 X137.15 Y135.959 E0.83005
G1 X136.07 Y133.909 E0.85911
G1 X135.412 Y132.453 E0.87914
G1 X134.607 Y130.308 E0.90787
G1 X134.014 Y128.382 E0.93315
G1 X133.572 Y126.548 E0.9568
G1 X133.278 Y124.934 E0.97738
G1 X133.019 Y122.636 E1.00638
G1 X132.911 Y120.643 E1.03141
G1 X132.933 Y118.701 E1.05576
G1 X133.066 Y116.735 E1.08047
G1 X133.324 Y114.804 E1.1049
G1 X133.695 Y112.89 E1.12935
G1 X134.1 Y111.298 E1.14995
G1 X134.794 Y109.141 E1.17837
G1 X135.506 Y107.312 E1.20298
G1 X136.138 Y105.933 E1.222
G1 X137.265 Y103.823 E1.252
G1 X138.076 Y102.507 E1.27139
G1 X139.44 Y100.563 E1.30117
G1 X140.4 Y99.361 E1.32046
G1 X141.996 Y97.604 E1.35023
G1 X143.099 Y96.525 E1.36958
G1 X144.899 Y94.967 E1.39943
G1 X146.224 Y93.958 E1.42031
G1 X148.001 Y92.77 E1.44712
G1 X149.785 Y91.727 E1.47303
G1 X151.235 Y90.993 E1.49342
G1 X153.311 Y90.103 E1.52174
G1 X155.148 Y89.444 E1.54621
G1 X156.976 Y88.915 E1.57008
G1 X158.969 Y88.461 E1.59571
G1 X160.495 Y88.206 E1.61511
G1 X162.856 Y87.962 E1.64488
G1 X164.402 Y87.896 E1.66428
G1 X166.774 Y87.942 E1.69404
G1 X168.318 Y88.064 E1.71346
G1 X170.638 Y88.394 E1.74285
G1 X172.168 Y88.706 E1.76243
G1 X174.47 Y89.329 E1.79233
G1 X176.311 Y89.953 E1.81671
G1 X177.743 Y90.531 E1.83608
G1 X179.89 Y91.556 E1.86591
G1 X181.506 Y92.456 E1.88911
G1 X182.932 Y93.363 E1.9103
G1 X184.803 Y94.735 E1.9394
G1 X186.297 Y95.97 E1.9637
G1 X187.501 Y97.093 E1.98435
G1 X189.053 Y98.73 E2.01264
G1 X190.108 Y99.989 E2.03324
G1 X191.477 Y101.835 E2.06206
G1 X192.356 Y103.189 E2.0823
G1 X193.475 Y105.176 E2.1109
G1 X194.262 Y106.799 E2.13352
G1 X195.028 Y108.647 E2.15861
G1 X195.604 Y110.309 E2.18066
G1 X196.2 Y112.462 E2.20868
G1 X196.624 Y114.458 E2.23427
G1 X196.862 Y116.055 E2.25452
G1 X197.055 Y118.28 E2.28252
G1 X197.1 Y120.287 E2.3077
G1 X197.05 Y121.808 E2.32678
G1 X196.819 Y124.198 E2.35689
G1 X196.536 Y125.993 E2.37968
G1 X196.078 Y128.053 E2.40615
G1 X195.656 Y129.531 E2.42542
G1 X194.873 Y131.737 E2.45478
G1 X194.082 Y133.576 E2.47988
G1 X193.283 Y135.176 E2.50231
G1 X192.223 Y137.014 E2.52891
G0 F9000 X191.889 Y136.793
G1 F1800 X191.012 Y138.12 E2.54886
G1 X189.697 Y139.868 E2.57629
G1 X188.513 Y141.257 E2.59918
G1 X187.175 Y142.646 E2.62337
G1 X185.883 Y143.837 E2.6454
G1 X184.094 Y145.293 E2.67433
G1 X182.525 Y146.414 E2.69851
G1 X181.131 Y147.288 E2.71914
G1 X179.274 Y148.296 E2.74564
G1 X177.424 Y149.161 E2.77125
G1 X175.995 Y149.731 E2.79054
G1 X173.784 Y150.451 E2.8197
G1 X172.038 Y150.905 E2.84233
G1 X170.072 Y151.286 E2.86744
G1 X168.277 Y151.525 E2.89015
G1 X166.157 Y151.67 E2.9168
G1 X164.423 Y151.689 E2.93854
G1 X162.293 Y151.582 E2.96529
G1 X160.765 Y151.413 E2.98457
G1 X158.46 Y151.007 E3.01392
G1 X156.626 Y150.564 E3.03758
G1 X155.057 Y150.091 E3.05813
G1 X152.997 Y149.335 E3.08565
G1 X151.445 Y148.65 E3.10692
G1 X149.586 Y147.69 E3.13316
G1 X147.824 Y146.638 E3.15889
G1 X146.409 Y145.673 E3.18037
G1 X144.9 Y144.507 E3.20428
G1 X143.271 Y143.07 E3.23152
G1 X141.938 Y141.741 E3.25513
G1 X140.642 Y140.28 E3.27962
G1 X139.53 Y138.865 E3.30219
G1 X138.318 Y137.112 E3.32892
G1 X137.504 Y135.772 E3.34858
G1 X136.435 Y133.744 E3.37733
G1 X135.777 Y132.288 E3.39736
G1 X134.982 Y130.168 E3.42576
G1 X134.403 Y128.288 E3.45042
G1 X133.966 Y126.476 E3.4738
G1 X133.672 Y124.862 E3.49437
G1 X133.418 Y122.614 E3.52274
G1 X133.311 Y120.647 E3.54745
G1 X133.332 Y118.728 E3.57151
G1 X133.463 Y116.788 E3.5959
G1 X133.717 Y114.88 E3.62003
G1 X134.083 Y112.989 E3.64419
G1 X134.488 Y111.397 E3.66479
G1 X135.167 Y109.286 E3.6926
G1 X135.87 Y107.479 E3.71691
G1 X136.502 Y106.1 E3.73593
G1 X137.606 Y104.033 E3.76532
G1 X138.417 Y102.717 E3.78471
G1 X139.753 Y100.813 E3.81387
G1 X140.713 Y99.611 E3.83317
G1 X142.276 Y97.89 E3.86232
G1 X143.379 Y96.811 E3.88167
G1 X145.141 Y95.285 E3.9109
G1 X146.446 Y94.291 E3.93147
G1 X148.223 Y93.103 E3.95828
G1 X149.966 Y92.084 E3.9836
G1 X151.393 Y91.361 E4.00366
G1 X153.446 Y90.48 E4.03167
G1 X155.283 Y89.821 E4.05615
G1 X157.065 Y89.305 E4.07941
G1 X159.035 Y88.856 E4.10475
G1 X160.561 Y88.601 E4.12415
G1 X162.873 Y88.362 E4.1533
G1 X164.419 Y88.296 E4.17271
G1 X166.742 Y88.341 E4.20184
G1 X168.286 Y88.463 E4.22127
G1 X170.558 Y88.786 E4.25004
G1 X172.088 Y89.098 E4.26962
G1 X174.342 Y89.708 E4.29891
G1 X176.161 Y90.324 E4.32299
G1 X177.593 Y90.902 E4.34236
G1 X179.695 Y91.905 E4.37156
G1 X181.291 Y92.794 E4.39447
G1 X182.717 Y93.701 E4.41567
G1 X184.548 Y95.043 E4.44414
G1 X186.024 Y96.263 E4.46815
G1 X187.228 Y97.386 E4.4888
G1 X188.746 Y98.987 E4.51646
G1 X189.801 Y100.246 E4.53706
G1 X191.141 Y102.053 E4.56527
G1 X192.02 Y103.407 E4.58552
G1 X193.115 Y105.351 E4.6135
G1 X193.892 Y106.952 E4.63581
G1 X194.658 Y108.8 E4.6609
G1 X195.218 Y110.416 E4.68235
G1 X195.814 Y112.569 E4.71036
G1 X196.228 Y114.517 E4.73534
G1 X196.463 Y116.09 E4.75528
G1 X196.656 Y118.315 E4.78329
G1 X196.7 Y120.274 E4.80786
G1 X196.65 Y121.795 E4.82695
G1 X196.424 Y124.136 E4.85644
G1 X196.145 Y125.906 E4.87891
G1 X195.693 Y127.943 E4.90508
G1 X195.271 Y129.421 E4.92435
G1 X194.505 Y131.579 E4.95307
G1 X193.724 Y133.397 E4.97788
G1 X192.925 Y134.997 E5.00031
G1 X191.889 Y136.793 E5.02631
G0 F9000 X191.555 Y136.572
G1 F1800 X190.678 Y137.899 E5.04626
G1 X189.392 Y139.609 E5.07309
G1 X188.225 Y140.979 E5.09566
G1 X186.887 Y142.368 E5.11984
G1 X185.612 Y143.543 E5.14158
G1 X183.861 Y144.968 E5.1699
G1 X182.312 Y146.075 E5.19377
G1 X180.94 Y146.936 E5.21408
G1 X179.083 Y147.944 E5.24058
G1 X177.276 Y148.789 E5.2656
G1 X175.847 Y149.359 E5.28489
G1 X173.683 Y150.064 E5.31343
G1 X171.962 Y150.512 E5.33573
G1 X170.019 Y150.889 E5.36055
G1 X168.224 Y151.128 E5.38326
G1 X166.153 Y151.27 E5.40929
G1 X164.443 Y151.289 E5.43074
G1 X162.337 Y151.184 E5.45718
G1 X160.809 Y151.015 E5.47646
G1 X158.554 Y150.618 E5.50517
G1 X156.741 Y150.181 E5.52856
G1 X155.195 Y149.715 E5.54881
G1 X153.135 Y148.959 E5.57633
G1 X151.629 Y148.295 E5.59697
G1 X149.77 Y147.335 E5.6232
G1 X148.049 Y146.307 E5.64834
G1 X146.654 Y145.356 E5.66952
G1 X145.145 Y144.19 E5.69343
G1 X143.553 Y142.787 E5.72004
G1 X142.237 Y141.476 E5.74334
G1 X140.957 Y140.033 E5.76752
G1 X139.845 Y138.618 E5.79009
G1 X138.66 Y136.904 E5.81622
G1 X137.846 Y135.564 E5.83589
G1 X136.8 Y133.579 E5.86402
G1 X136.142 Y132.123 E5.88406
G1 X135.364 Y130.05 E5.91183
G1 X134.792 Y128.194 E5.93618
G1 X134.36 Y126.404 E5.95927
G1 X134.066 Y124.79 E5.97985
G1 X133.817 Y122.592 E6.00759
G1 X133.711 Y120.651 E6.03196
G1 X133.731 Y118.755 E6.05574
G1 X133.86 Y116.841 E6.0798
G1 X134.11 Y114.956 E6.10364
G1 X134.471 Y113.088 E6.1275
G1 X134.876 Y111.496 E6.1481
G1 X135.54 Y109.431 E6.1753
G1 X136.234 Y107.646 E6.19932
G1 X136.866 Y106.267 E6.21834
G1 X137.947 Y104.243 E6.24712
G1 X138.758 Y102.927 E6.2665
G1 X140.066 Y101.063 E6.29506
G1 X141.026 Y99.861 E6.31435
G1 X142.556 Y98.176 E6.34289
G1 X143.659 Y97.097 E6.36224
G1 X145.384 Y95.603 E6.39086
G1 X146.668 Y94.624 E6.41111
G1 X148.445 Y93.436 E6.43791
G1 X150.147 Y92.441 E6.46264
G1 X151.551 Y91.729 E6.48238
G1 X153.581 Y90.857 E6.51009
G1 X155.418 Y90.198 E6.53456
G1 X157.154 Y89.695 E6.55722
G1 X159.101 Y89.251 E6.58227
G1 X160.627 Y88.996 E6.60167
G1 X162.89 Y88.762 E6.6302
G1 X164.436 Y88.696 E6.6496
G1 X166.71 Y88.74 E6.67813
G1 X168.254 Y88.862 E6.69755
G1 X170.478 Y89.178 E6.72572
G1 X172.008 Y89.49 E6.7453
G1 X174.214 Y90.087 E6.77396
G1 X176.011 Y90.695 E6.79775
G1 X177.443 Y91.273 E6.81712
G1 X179.5 Y92.255 E6.8457
G1 X181.076 Y93.132 E6.86832
G1 X182.502 Y94.039 E6.88951
G1 X184.293 Y95.351 E6.91735
G1 X185.751 Y96.556 E6.94107
G1 X186.955 Y97.679 E6.96172
G1 X188.439 Y99.244 E6.98877
G1 X189.494 Y100.503 E7.00936
G1 X190.805 Y102.271 E7.03697
G1 X191.684 Y103.625 E7.05721
G1 X192.755 Y105.526 E7.08457
G1 X193.522 Y107.105 E7.10659
G1 X194.288 Y108.953 E7.13167
G1 X194.832 Y110.523 E7.15251
G1 X195.428 Y112.676 E7.18052
G1 X195.832 Y114.576 E7.20488
G1 X196.064 Y116.125 E7.22453
G1 X196.257 Y118.35 E7.25253
G1 X196.3 Y120.261 E7.2765
G1 X196.25 Y121.782 E7.29559
G1 X196.029 Y124.074 E7.32446
G1 X195.75 Y125.844 E7.34693
G1 X195.308 Y127.833 E7.37249
G1 X194.886 Y129.311 E7.39176
G1 X194.128 Y131.445 E7.42016
G1 X193.366 Y133.218 E7.44436
G1 X192.567 Y134.818 E7.46679
G1 X191.555 Y136.572 E7.49218
G0 F9000 X191.221 Y136.351
G1 F1800 X190.344 Y137.678 E7.51213
G1 X189.072 Y139.369 E7.53866
G1 X187.937 Y140.701 E7.56061
G1 X186.599 Y142.09 E7.5848
G1 X185.341 Y143.249 E7.60625
G1 X183.628 Y144.643 E7.63394
G1 X182.099 Y145.736 E7.65751
G1 X180.749 Y146.584 E7.6775
G1 X178.892 Y147.592 E7.704
G1 X177.128 Y148.417 E7.72842
G1 X175.699 Y148.987 E7.74771
G1 X173.582 Y149.677 E7.77564
G1 X171.886 Y150.119 E7.79762
G1 X169.966 Y150.492 E7.82214
G1 X168.171 Y150.731 E7.84485
G1 X166.149 Y150.87 E7.87027
G1 X164.439 Y150.889 E7.89171
G1 X162.381 Y150.786 E7.91755
G1 X160.853 Y150.617 E7.93683
G1 X158.648 Y150.229 E7.96491
G1 X156.856 Y149.798 E7.98802
G1 X155.333 Y149.339 E8.00797
G1 X153.273 Y148.583 E8.03549
G1 X151.79 Y147.929 E8.05581
G1 X149.975 Y146.992 E8.08143
G1 X148.274 Y145.976 E8.10627
G1 X146.899 Y145.039 E8.12714
G1 X145.39 Y143.873 E8.15106
G1 X143.818 Y142.487 E8.17734
G1 X142.536 Y141.21 E8.20003
G1 X141.272 Y139.786 E8.22391
G1 X140.16 Y138.371 E8.24647
G1 X139.002 Y136.696 E8.27201
G1 X138.188 Y135.356 E8.29167
G1 X137.165 Y133.414 E8.3192
G1 X136.507 Y131.958 E8.33923
G1 X135.739 Y129.91 E8.36666
G1 X135.181 Y128.1 E8.39042
G1 X134.754 Y126.332 E8.41322
G1 X134.46 Y124.718 E8.4338
G1 X134.216 Y122.57 E8.46091
G1 X134.111 Y120.655 E8.48496
G1 X134.13 Y118.782 E8.50845
G1 X134.257 Y116.893 E8.53219
G1 X134.503 Y115.032 E8.55573
G1 X134.859 Y113.187 E8.57929
G1 X135.264 Y111.595 E8.5999
G1 X135.913 Y109.576 E8.62649
G1 X136.598 Y107.813 E8.65021
G1 X137.23 Y106.434 E8.66923
G1 X138.288 Y104.453 E8.6974
G1 X139.099 Y103.137 E8.71678
G1 X140.379 Y101.313 E8.74472
G1 X141.339 Y100.111 E8.76402
G1 X142.836 Y98.462 E8.79194
G1 X143.939 Y97.383 E8.81129
G1 X145.627 Y95.921 E8.8393
G1 X146.89 Y94.957 E8.85922
G1 X148.667 Y93.769 E8.88603
G1 X150.328 Y92.798 E8.91016
G1 X151.709 Y92.097 E8.92958
G1 X153.739 Y91.225 E8.95728
G1 X155.529 Y90.582 E8.98114
G1 X157.243 Y90.085 E9.00352
G1 X159.167 Y89.646 E9.02826
G1 X160.693 Y89.391 E9.04767
G1 X162.907 Y89.162 E9.07558
G1 X164.453 Y89.096 E9.09498
G1 X166.678 Y89.139 E9.12289
G1 X168.222 Y89.261 E9.14231
G1 X170.398 Y89.57 E9.16987
G1 X171.928 Y89.882 E9.18946
G1 X174.086 Y90.466 E9.21749
G1 X175.861 Y91.066 E9.24099
G1 X177.293 Y91.644 E9.26035
G1 X179.306 Y92.605 E9.28833
G1 X180.861 Y93.47 E9.31064
G1 X182.287 Y94.377 E9.33183
G1 X184.038 Y95.659 E9.35905
G1 X185.478 Y96.849 E9.38248
G1 X186.682 Y97.972 E9.40312
G1 X188.132 Y99.501 E9.42955
G1 X189.187 Y100.76 E9.45015
G1 X190.469 Y102.489 E9.47714
G1 X191.348 Y103.843 E9.49738
G1 X192.395 Y105.701 E9.52413
G1 X193.152 Y107.258 E9.54584
G1 X193.918 Y109.106 E9.57092
G1 X194.446 Y110.63 E9.59115
G1 X195.042 Y112.783 E9.61916
G1 X195.436 Y114.635 E9.64291
G1 X195.665 Y116.16 E9.66225
G1 X195.858 Y118.385 E9.69026
G1 X195.9 Y120.248 E9.71362
G1 X195.85 Y121.769 E9.73271
G1 X195.634 Y124.012 E9.76097
G1 X195.359 Y125.757 E9.78312
G1 X194.923 Y127.723 E9.80837
G1 X194.501 Y129.201 E9.82765
G1 X193.76 Y131.287 E9.85541
G1 X193.008 Y133.039 E9.87932
G1 X192.209 Y134.639 E9.90174
G1 X191.221 Y136.351 E9.92653
G0 F9000 X190.887 Y136.13
G1 F1800 X190.01 Y137.457 E9.94648
G1 X188.752 Y139.129 E9.97272
G1 X187.649 Y140.423 E9.99404
G1 X186.311 Y141.812 E10.01823
G1 X185.07 Y142.955 E10.03938
G1 X183.395 Y144.318 E10.06647
G1 X181.886 Y145.397 E10.08973
G1 X180.558 Y146.232 E10.1094
G1 X178.701 Y147.24 E10.1359
G1 X176.98 Y148.045 E10.15972
G1 X175.551 Y148.615 E10.17902
G1 X173.481 Y149.29 E10.20632
G1 X171.81 Y149.726 E10.22798
G1 X169.913 Y150.095 E10.25221
G1 X168.118 Y150.334 E10.27492
G1 X166.145 Y150.47 E10.29972
G1 X164.435 Y150.489 E10.32117
G1 X162.425 Y150.388 E10.34641
G1 X160.897 Y150.219 E10.36568
G1 X158.741 Y149.84 E10.39314
G1 X156.971 Y149.415 E10.41596
G1 X155.471 Y148.963 E10.43561
G1 X153.411 Y148.207 E10.46313
G1 X151.952 Y147.563 E10.48313
G1 X150.18 Y146.648 E10.50814
G1 X148.499 Y145.645 E10.53268
G1 X147.144 Y144.722 E10.55324
G1 X145.635 Y143.556 E10.57716
G1 X144.083 Y142.187 E10.60311
G1 X142.835 Y140.944 E10.6252
G1 X141.587 Y139.539 E10.64877
G1 X140.475 Y138.124 E10.67133
G1 X139.344 Y136.488 E10.69627
G1 X138.542 Y135.169 E10.71563
G1 X137.53 Y133.249 E10.74285
G1 X136.872 Y131.793 E10.76289
G1 X136.121 Y129.792 E10.78969
G1 X135.57 Y128.006 E10.81313
G1 X135.148 Y126.26 E10.83565
G1 X134.854 Y124.646 E10.85623
G1 X134.615 Y122.548 E10.88271
G1 X134.511 Y120.659 E10.90643
G1 X134.529 Y118.809 E10.92963
G1 X134.654 Y116.945 E10.95306
G1 X134.896 Y115.108 E10.9763
G1 X135.247 Y113.286 E10.99957
G1 X135.652 Y111.694 E11.02017
G1 X136.286 Y109.721 E11.04615
G1 X136.962 Y107.98 E11.06957
G1 X137.594 Y106.601 E11.0886
G1 X138.629 Y104.663 E11.11615
G1 X139.44 Y103.347 E11.13553
G1 X140.692 Y101.563 E11.16287
G1 X141.652 Y100.361 E11.18216
G1 X143.116 Y98.748 E11.20947
G1 X144.219 Y97.669 E11.22882
G1 X145.87 Y96.239 E11.25621
G1 X147.112 Y95.29 E11.27582
G1 X148.889 Y94.102 E11.30262
G1 X150.509 Y93.155 E11.32615
G1 X151.89 Y92.454 E11.34557
G1 X153.874 Y91.601 E11.37266
G1 X155.641 Y90.966 E11.3962
G1 X157.332 Y90.475 E11.41828
G1 X159.233 Y90.041 E11.44274
G1 X160.759 Y89.786 E11.46214
G1 X162.924 Y89.562 E11.48943
G1 X164.47 Y89.496 E11.50884
G1 X166.646 Y89.538 E11.53613
G1 X168.19 Y89.66 E11.55555
G1 X170.318 Y89.962 E11.58251
G1 X171.848 Y90.274 E11.60209
G1 X173.958 Y90.845 E11.6295
G1 X175.711 Y91.437 E11.6527
G1 X177.143 Y92.015 E11.67207
G1 X179.112 Y92.955 E11.69943
G1 X180.646 Y93.808 E11.72144
G1 X182.072 Y94.715 E11.74264
G1 X183.783 Y95.967 E11.76922
G1 X185.205 Y97.142 E11.79236
G1 X186.409 Y98.265 E11.813
G1 X187.825 Y99.758 E11.83881
G1 X188.88 Y101.017 E11.85941
G1 X190.133 Y102.707 E11.88579
G1 X191.012 Y104.061 E11.90603
G1 X192.035 Y105.876 E11.93216
G1 X192.782 Y107.411 E11.95357
G1 X193.548 Y109.259 E11.97865
G1 X194.068 Y110.761 E11.99859
G1 X194.651 Y112.866 E12.02598
